src/icons/editor/glyph/ItalicsIcon.svg

<svg width="24" height="24" viewBox="0 0 24 24" fill="none" xmlns="http://www.w3.org/2000/svg">
<path d="M9.98438 3.98438H18V6.98438H15.1875L11.8125 15H14.0156V18H6V15H8.8125L12.1875 6.98438H9.98438V3.98438Z" fill="currentColor"/>
</svg>

<svg xmlns="http://www.w3.org/2000/svg" width="24" height="24" fill="currentColor" viewBox="0 0 24 24">
  <path d="M9.984 3.984H18v3h-2.813L11.813 15h2.203v3H6v-3h2.813l3.374-8.016H9.985v-3Z"/>
</svg>
